X: 53
T:Morning Dew
T:Hare in the Heather
D:Session in Ennis
M:C
L:1/8
K:EMinor
B2 EB GBEB|(3BBB EB ADFA| B2 EB GBEB|(3BBB dB ADFA|
B2 EB GBEB|(3BBB EB ADFA|{^c}BAGF EFGA|BdBA FDFA:|
|:~E3 B {^c}BAFD|EBEB AGFD| ~E3 B {^c}BABc| d BADFD
